X:381
T: Munster Rake
N: O'Farrell's Pocket Companion v.4 (Sky ed. p.164)
N: "Irish"
M: 9/8
L: 1/8
Q: 300
R: slip jig
K: G
D/E/| G/A/BG AGE EDE| G/A/BG AGE c2e| dBG AGE EDE| G/A/BG AGE G2 :|
e| dBG GAG e/f/ge| dBG GBG A2e| dBG GAG e/f/ge| dBG AGE G2e|
dBG GAG e/f/ge| dBG GBG A2e| dBB gBB AGE| G/A/BG AGE G2 :|
